X:0810
T:Lord Bath's gate.
S:Aird v5 p4
M:2/4
L:1/8
Q:1/4=100
I: :: :|
Z:Jack Campin * www.campin.me.uk * 2009
K:D
dDAD|BDAD|dDAD    |BDAD|dDfd|eAaa|fdcB|A2A2:|
e2f2|g2e2|f/g/a aa|a4  |e2f2|g2e2|fdec|d2D2:|

